;FLAVOR:Marlin 
;Layer height: 0.12 
;Generated with Cura_SteamEngine 4.9.0 
M140 S55
M105 
M190 S55
M140 S65
M104 S205
M105 
M109 S205
M190 S65
M82 ;absolute extrusion mode 
; Ender 3 Custom Start G-code 
G92 E0 ; Reset Extruder 
G1 X0 Y0 Z10 F3000
G1 Z2.0 F3000 ; Move Z Axis up little to prevent scratching of Heat Bed 
G1 X0.1 Y20 Z0.3 F5000.0 ; Move to start position 
G1 X0.1 Y200.0 Z0.3 F1500.0 E15 ; Draw the first line 
G1 X0.4 Y200.0 Z0.3 F5000.0 ; Move to side a little 
G1 X0.4 Y20 Z0.3 F1500.0 E30 ; Draw the second line 
G92 E0 ; Reset Extruder 
G1 Z2.0 F3000 ; Move Z Axis up little to prevent scratching of Heat Bed 
G1 X5 Y20 Z0.3 F5000.0 ; Move over to prevent blob squish 
G92 E0 
G92 E0 
G1 F3000 E-8 
G0 X114.75 Y114.75 Z0.24 F2400
G1 E0.0
G1 X105.25 Y114.75 Z0.24 E0.473957 F1200
G1 X105.25 Y105.25 Z0.24 E0.947914 F1200
G1 X114.75 Y105.25 Z0.24 E1.421871 F1200
G1 X114.75 Y114.75 Z0.24 E1.895828 F1200
G0 X114.25 Y114.25 Z0.24 F2400
G1 X105.75 Y114.25 Z0.24 E2.319895 F1200
G1 X105.75 Y105.75 Z0.24 E2.743962 F1200
G1 X114.25 Y105.75 Z0.24 E3.168029 F1200
G1 X114.25 Y114.25 Z0.24 E3.592096 F1200
G0 X113.75 Y113.75 Z0.24 F2400
G1 X106.25 Y113.75 Z0.24 E3.966273 F1200
G1 X106.25 Y106.25 Z0.24 E4.34045 F1200
G1 X113.75 Y106.25 Z0.24 E4.714627 F1200
G1 X113.75 Y113.75 Z0.24 E5.088804 F1200
G0 X113.25 Y113.25 Z0.24 F2400
G1 X106.75 Y113.25 Z0.24 E5.41309 F1200
G1 X106.75 Y106.75 Z0.24 E5.737376 F1200
G1 X113.25 Y106.75 Z0.24 E6.061662 F1200
G1 X113.25 Y113.25 Z0.24 E6.385948 F1200
G0 X112.75 Y112.75 Z0.24 F2400
G1 X107.25 Y112.75 Z0.24 E6.660344 F1200
G1 X107.25 Y107.25 Z0.24 E6.93474 F1200
G1 X112.75 Y107.25 Z0.24 E7.209136 F1200
G1 X112.75 Y112.75 Z0.24 E7.483532 F1200
G0 X112.25 Y112.25 Z0.24 F2400
G1 X107.75 Y112.25 Z0.24 E7.708038 F1200
G1 X107.75 Y107.75 Z0.24 E7.932544 F1200
G1 X112.25 Y107.75 Z0.24 E8.15705 F1200
G1 X112.25 Y112.25 Z0.24 E8.381556 F1200
G0 X111.75 Y111.75 Z0.24 F2400
G1 X108.25 Y111.75 Z0.24 E8.556172 F1200
G1 X108.25 Y108.25 Z0.24 E8.730788 F1200
G1 X111.75 Y108.25 Z0.24 E8.905404 F1200
G1 X111.75 Y111.75 Z0.24 E9.08002 F1200
G0 X111.25 Y111.25 Z0.24 F2400
G1 X108.75 Y111.25 Z0.24 E9.204746 F1200
G1 X108.75 Y108.75 Z0.24 E9.329472 F1200
G1 X111.25 Y108.75 Z0.24 E9.454198 F1200
G1 X111.25 Y111.25 Z0.24 E9.578924 F1200
G0 X110.75 Y110.75 Z0.24 F2400
G1 X109.25 Y110.75 Z0.24 E9.653759 F1200
G1 X109.25 Y109.25 Z0.24 E9.728594 F1200
G1 X110.75 Y109.25 Z0.24 E9.803429 F1200
G1 X110.75 Y110.75 Z0.24 E9.878264 F1200
G0 X110.25 Y110.25 Z0.24 F2400
G1 X109.75 Y110.25 Z0.24 E9.903209 F1200
G1 X109.75 Y109.75 Z0.24 E9.928154 F1200
G1 X110.25 Y109.75 Z0.24 E9.953099 F1200
G1 X110.25 Y110.25 Z0.24 E9.978044 F1200
G1 E1.9780440000000006
M104 S200
M140 S60
G0 X114.8 Y114.8 Z0.24 F4800
G0 X114.8 Y114.8 Z0.36 F4800
G1 E9.978044
G1 X105.2 Y114.8 Z0.36 E10.169622 F2400
G1 X105.2 Y105.2 Z0.36 E10.3612 F2400
G1 X114.8 Y105.2 Z0.36 E10.552778 F2400
G1 X114.8 Y114.8 Z0.36 E10.744356 F2400
G0 X114.4 Y114.4 Z0.36 F4800
G1 X105.6 Y114.4 Z0.36 E10.91997 F2400
G1 X105.6 Y105.6 Z0.36 E11.095584 F2400
G1 X114.4 Y105.6 Z0.36 E11.271198 F2400
G1 X114.4 Y114.4 Z0.36 E11.446812 F2400
G0 X114.0 Y114.0 Z0.36 F4800
G1 X106.0 Y114.0 Z0.36 E11.606461 F2400
G1 X106.0 Y106.0 Z0.36 E11.76611 F2400
G1 X114.0 Y106.0 Z0.36 E11.925759 F2400
G1 X114.0 Y114.0 Z0.36 E12.085408 F2400
G0 X113.6 Y113.6 Z0.36 F4800
G1 X106.4 Y113.6 Z0.36 E12.229092 F2400
G1 X106.4 Y106.4 Z0.36 E12.372776 F2400
G1 X113.6 Y106.4 Z0.36 E12.51646 F2400
G1 X113.6 Y113.6 Z0.36 E12.660144 F2400
G0 X113.2 Y113.2 Z0.36 F4800
G1 X106.8 Y113.2 Z0.36 E12.787863 F2400
G1 X106.8 Y106.8 Z0.36 E12.915582 F2400
G1 X113.2 Y106.8 Z0.36 E13.043301 F2400
G1 X113.2 Y113.2 Z0.36 E13.17102 F2400
G0 X112.8 Y112.8 Z0.36 F4800
G1 X107.2 Y112.8 Z0.36 E13.282774 F2400
G1 X107.2 Y107.2 Z0.36 E13.394528 F2400
G1 X112.8 Y107.2 Z0.36 E13.506282 F2400
G1 X112.8 Y112.8 Z0.36 E13.618036 F2400
G0 X112.4 Y112.4 Z0.36 F4800
G1 X107.6 Y112.4 Z0.36 E13.713825 F2400
G1 X107.6 Y107.6 Z0.36 E13.809614 F2400
G1 X112.4 Y107.6 Z0.36 E13.905403 F2400
G1 X112.4 Y112.4 Z0.36 E14.001192 F2400
G0 X112.0 Y112.0 Z0.36 F4800
G1 X108.0 Y112.0 Z0.36 E14.081016 F2400
G1 X108.0 Y108.0 Z0.36 E14.16084 F2400
G1 X112.0 Y108.0 Z0.36 E14.240664 F2400
G1 X112.0 Y112.0 Z0.36 E14.320488 F2400
G0 X111.6 Y111.6 Z0.36 F4800
G1 X108.4 Y111.6 Z0.36 E14.384347 F2400
G1 X108.4 Y108.4 Z0.36 E14.448206 F2400
G1 X111.6 Y108.4 Z0.36 E14.512065 F2400
G1 X111.6 Y111.6 Z0.36 E14.575924 F2400
G0 X111.2 Y111.2 Z0.36 F4800
G1 X108.8 Y111.2 Z0.36 E14.623819 F2400
G1 X108.8 Y108.8 Z0.36 E14.671714 F2400
G1 X111.2 Y108.8 Z0.36 E14.719609 F2400
G1 X111.2 Y111.2 Z0.36 E14.767504 F2400
G0 X110.8 Y110.8 Z0.36 F4800
G1 X109.2 Y110.8 Z0.36 E14.799434 F2400
G1 X109.2 Y109.2 Z0.36 E14.831364 F2400
G1 X110.8 Y109.2 Z0.36 E14.863294 F2400
G1 X110.8 Y110.8 Z0.36 E14.895224 F2400
G0 X110.4 Y110.4 Z0.36 F4800
G1 X109.6 Y110.4 Z0.36 E14.911189 F2400
G1 X109.6 Y109.6 Z0.36 E14.927154 F2400
G1 X110.4 Y109.6 Z0.36 E14.943119 F2400
G1 X110.4 Y110.4 Z0.36 E14.959084 F2400
G1 E6.959084000000001
G0 X114.8 Y114.8 Z0.36 F4800
G0 X114.8 Y114.8 Z0.48 F4800
G1 E14.959084
G1 X105.2 Y114.8 Z0.48 E15.150662 F2400
G1 X105.2 Y105.2 Z0.48 E15.34224 F2400
G1 X114.8 Y105.2 Z0.48 E15.533818 F2400
G1 X114.8 Y114.8 Z0.48 E15.725396 F2400
G0 X114.4 Y114.4 Z0.48 F4800
G1 X105.6 Y114.4 Z0.48 E15.90101 F2400
G1 X105.6 Y105.6 Z0.48 E16.076624 F2400
G1 X114.4 Y105.6 Z0.48 E16.252238 F2400
G1 X114.4 Y114.4 Z0.48 E16.427852 F2400
G0 X114.0 Y114.0 Z0.48 F4800
G1 X106.0 Y114.0 Z0.48 E16.587501 F2400
G1 X106.0 Y106.0 Z0.48 E16.74715 F2400
G1 X114.0 Y106.0 Z0.48 E16.906799 F2400
G1 X114.0 Y114.0 Z0.48 E17.066448 F2400
G0 X113.6 Y113.6 Z0.48 F4800
G1 X106.4 Y113.6 Z0.48 E17.210132 F2400
G1 X106.4 Y106.4 Z0.48 E17.353816 F2400
G1 X113.6 Y106.4 Z0.48 E17.4975 F2400
G1 X113.6 Y113.6 Z0.48 E17.641184 F2400
G0 X113.2 Y113.2 Z0.48 F4800
G1 X106.8 Y113.2 Z0.48 E17.768903 F2400
G1 X106.8 Y106.8 Z0.48 E17.896622 F2400
G1 X113.2 Y106.8 Z0.48 E18.024341 F2400
G1 X113.2 Y113.2 Z0.48 E18.15206 F2400
G0 X112.8 Y112.8 Z0.48 F4800
G1 X107.2 Y112.8 Z0.48 E18.263814 F2400
G1 X107.2 Y107.2 Z0.48 E18.375568 F2400
G1 X112.8 Y107.2 Z0.48 E18.487322 F2400
G1 X112.8 Y112.8 Z0.48 E18.599076 F2400
G0 X112.4 Y112.4 Z0.48 F4800
G1 X107.6 Y112.4 Z0.48 E18.694865 F2400
G1 X107.6 Y107.6 Z0.48 E18.790654 F2400
G1 X112.4 Y107.6 Z0.48 E18.886443 F2400
G1 X112.4 Y112.4 Z0.48 E18.982232 F2400
G0 X112.0 Y112.0 Z0.48 F4800
G1 X108.0 Y112.0 Z0.48 E19.062056 F2400
G1 X108.0 Y108.0 Z0.48 E19.14188 F2400
G1 X112.0 Y108.0 Z0.48 E19.221704 F2400
G1 X112.0 Y112.0 Z0.48 E19.301528 F2400
G0 X111.6 Y111.6 Z0.48 F4800
G1 X108.4 Y111.6 Z0.48 E19.365387 F2400
G1 X108.4 Y108.4 Z0.48 E19.429246 F2400
G1 X111.6 Y108.4 Z0.48 E19.493105 F2400
G1 X111.6 Y111.6 Z0.48 E19.556964 F2400
G0 X111.2 Y111.2 Z0.48 F4800
G1 X108.8 Y111.2 Z0.48 E19.604859 F2400
G1 X108.8 Y108.8 Z0.48 E19.652754 F2400
G1 X111.2 Y108.8 Z0.48 E19.700649 F2400
G1 X111.2 Y111.2 Z0.48 E19.748544 F2400
G0 X110.8 Y110.8 Z0.48 F4800
G1 X109.2 Y110.8 Z0.48 E19.780474 F2400
G1 X109.2 Y109.2 Z0.48 E19.812404 F2400
G1 X110.8 Y109.2 Z0.48 E19.844334 F2400
G1 X110.8 Y110.8 Z0.48 E19.876264 F2400
G0 X110.4 Y110.4 Z0.48 F4800
G1 X109.6 Y110.4 Z0.48 E19.892229 F2400
G1 X109.6 Y109.6 Z0.48 E19.908194 F2400
G1 X110.4 Y109.6 Z0.48 E19.924159 F2400
G1 X110.4 Y110.4 Z0.48 E19.940124 F2400
G1 E11.940124
G0 X114.8 Y114.8 Z0.48 F4800
G0 X114.8 Y114.8 Z0.6 F4800
G1 E19.940124
G1 X105.2 Y114.8 Z0.6 E20.131702 F2400
G1 X105.2 Y105.2 Z0.6 E20.32328 F2400
G1 X114.8 Y105.2 Z0.6 E20.514858 F2400
G1 X114.8 Y114.8 Z0.6 E20.706436 F2400
G0 X114.4 Y114.4 Z0.6 F4800
G1 X105.6 Y114.4 Z0.6 E20.88205 F2400
G1 X105.6 Y105.6 Z0.6 E21.057664 F2400
G1 X114.4 Y105.6 Z0.6 E21.233278 F2400
G1 X114.4 Y114.4 Z0.6 E21.408892 F2400
G0 X114.0 Y114.0 Z0.6 F4800
G1 X106.0 Y114.0 Z0.6 E21.568541 F2400
G1 X106.0 Y106.0 Z0.6 E21.72819 F2400
G1 X114.0 Y106.0 Z0.6 E21.887839 F2400
G1 X114.0 Y114.0 Z0.6 E22.047488 F2400
G0 X113.6 Y113.6 Z0.6 F4800
G1 X106.4 Y113.6 Z0.6 E22.191172 F2400
G1 X106.4 Y106.4 Z0.6 E22.334856 F2400
G1 X113.6 Y106.4 Z0.6 E22.47854 F2400
G1 X113.6 Y113.6 Z0.6 E22.622224 F2400
G0 X113.2 Y113.2 Z0.6 F4800
G1 X106.8 Y113.2 Z0.6 E22.749943 F2400
G1 X106.8 Y106.8 Z0.6 E22.877662 F2400
G1 X113.2 Y106.8 Z0.6 E23.005381 F2400
G1 X113.2 Y113.2 Z0.6 E23.1331 F2400
G0 X112.8 Y112.8 Z0.6 F4800
G1 X107.2 Y112.8 Z0.6 E23.244854 F2400
G1 X107.2 Y107.2 Z0.6 E23.356608 F2400
G1 X112.8 Y107.2 Z0.6 E23.468362 F2400
G1 X112.8 Y112.8 Z0.6 E23.580116 F2400
G0 X112.4 Y112.4 Z0.6 F4800
G1 X107.6 Y112.4 Z0.6 E23.675905 F2400
G1 X107.6 Y107.6 Z0.6 E23.771694 F2400
G1 X112.4 Y107.6 Z0.6 E23.867483 F2400
G1 X112.4 Y112.4 Z0.6 E23.963272 F2400
G0 X112.0 Y112.0 Z0.6 F4800
G1 X108.0 Y112.0 Z0.6 E24.043096 F2400
G1 X108.0 Y108.0 Z0.6 E24.12292 F2400
G1 X112.0 Y108.0 Z0.6 E24.202744 F2400
G1 X112.0 Y112.0 Z0.6 E24.282568 F2400
G0 X111.6 Y111.6 Z0.6 F4800
G1 X108.4 Y111.6 Z0.6 E24.346427 F2400
G1 X108.4 Y108.4 Z0.6 E24.410286 F2400
G1 X111.6 Y108.4 Z0.6 E24.474145 F2400
G1 X111.6 Y111.6 Z0.6 E24.538004 F2400
G0 X111.2 Y111.2 Z0.6 F4800
G1 X108.8 Y111.2 Z0.6 E24.585899 F2400
G1 X108.8 Y108.8 Z0.6 E24.633794 F2400
G1 X111.2 Y108.8 Z0.6 E24.681689 F2400
G1 X111.2 Y111.2 Z0.6 E24.729584 F2400
G0 X110.8 Y110.8 Z0.6 F4800
G1 X109.2 Y110.8 Z0.6 E24.761514 F2400
G1 X109.2 Y109.2 Z0.6 E24.793444 F2400
G1 X110.8 Y109.2 Z0.6 E24.825374 F2400
G1 X110.8 Y110.8 Z0.6 E24.857304 F2400
G0 X110.4 Y110.4 Z0.6 F4800
G1 X109.6 Y110.4 Z0.6 E24.873269 F2400
G1 X109.6 Y109.6 Z0.6 E24.889234 F2400
G1 X110.4 Y109.6 Z0.6 E24.905199 F2400
G1 X110.4 Y110.4 Z0.6 E24.921164 F2400
G1 E16.921164
G0 X114.8 Y114.8 Z0.6 F4800
G0 X114.8 Y114.8 Z0.72 F4800
G1 E24.921164
G1 X105.2 Y114.8 Z0.72 E25.112742 F2400
G1 X105.2 Y105.2 Z0.72 E25.30432 F2400
G1 X114.8 Y105.2 Z0.72 E25.495898 F2400
G1 X114.8 Y114.8 Z0.72 E25.687476 F2400
G0 X114.4 Y114.4 Z0.72 F4800
G1 X105.6 Y114.4 Z0.72 E25.86309 F2400
G1 X105.6 Y105.6 Z0.72 E26.038704 F2400
G1 X114.4 Y105.6 Z0.72 E26.214318 F2400
G1 X114.4 Y114.4 Z0.72 E26.389932 F2400
G0 X114.0 Y114.0 Z0.72 F4800
G1 X106.0 Y114.0 Z0.72 E26.549581 F2400
G1 X106.0 Y106.0 Z0.72 E26.70923 F2400
G1 X114.0 Y106.0 Z0.72 E26.868879 F2400
G1 X114.0 Y114.0 Z0.72 E27.028528 F2400
G0 X113.6 Y113.6 Z0.72 F4800
G1 X106.4 Y113.6 Z0.72 E27.172212 F2400
G1 X106.4 Y106.4 Z0.72 E27.315896 F2400
G1 X113.6 Y106.4 Z0.72 E27.45958 F2400
G1 X113.6 Y113.6 Z0.72 E27.603264 F2400
G0 X113.2 Y113.2 Z0.72 F4800
G1 X106.8 Y113.2 Z0.72 E27.730983 F2400
G1 X106.8 Y106.8 Z0.72 E27.858702 F2400
G1 X113.2 Y106.8 Z0.72 E27.986421 F2400
G1 X113.2 Y113.2 Z0.72 E28.11414 F2400
G0 X112.8 Y112.8 Z0.72 F4800
G1 X107.2 Y112.8 Z0.72 E28.225894 F2400
G1 X107.2 Y107.2 Z0.72 E28.337648 F2400
G1 X112.8 Y107.2 Z0.72 E28.449402 F2400
G1 X112.8 Y112.8 Z0.72 E28.561156 F2400
G0 X112.4 Y112.4 Z0.72 F4800
G1 X107.6 Y112.4 Z0.72 E28.656945 F2400
G1 X107.6 Y107.6 Z0.72 E28.752734 F2400
G1 X112.4 Y107.6 Z0.72 E28.848523 F2400
G1 X112.4 Y112.4 Z0.72 E28.944312 F2400
G0 X112.0 Y112.0 Z0.72 F4800
G1 X108.0 Y112.0 Z0.72 E29.024136 F2400
G1 X108.0 Y108.0 Z0.72 E29.10396 F2400
G1 X112.0 Y108.0 Z0.72 E29.183784 F2400
G1 X112.0 Y112.0 Z0.72 E29.263608 F2400
G0 X111.6 Y111.6 Z0.72 F4800
G1 X108.4 Y111.6 Z0.72 E29.327467 F2400
G1 X108.4 Y108.4 Z0.72 E29.391326 F2400
G1 X111.6 Y108.4 Z0.72 E29.455185 F2400
G1 X111.6 Y111.6 Z0.72 E29.519044 F2400
G0 X111.2 Y111.2 Z0.72 F4800
G1 X108.8 Y111.2 Z0.72 E29.566939 F2400
G1 X108.8 Y108.8 Z0.72 E29.614834 F2400
G1 X111.2 Y108.8 Z0.72 E29.662729 F2400
G1 X111.2 Y111.2 Z0.72 E29.710624 F2400
G0 X110.8 Y110.8 Z0.72 F4800
G1 X109.2 Y110.8 Z0.72 E29.742554 F2400
G1 X109.2 Y109.2 Z0.72 E29.774484 F2400
G1 X110.8 Y109.2 Z0.72 E29.806414 F2400
G1 X110.8 Y110.8 Z0.72 E29.838344 F2400
G0 X110.4 Y110.4 Z0.72 F4800
G1 X109.6 Y110.4 Z0.72 E29.854309 F2400
G1 X109.6 Y109.6 Z0.72 E29.870274 F2400
G1 X110.4 Y109.6 Z0.72 E29.886239 F2400
G1 X110.4 Y110.4 Z0.72 E29.902204 F2400
G1 E21.902204
G0 X114.8 Y114.8 Z0.72 F4800
G0 X114.8 Y114.8 Z0.84 F4800
G1 E29.902204
G1 X105.2 Y114.8 Z0.84 E30.093782 F2400
G1 X105.2 Y105.2 Z0.84 E30.28536 F2400
G1 X114.8 Y105.2 Z0.84 E30.476938 F2400
G1 X114.8 Y114.8 Z0.84 E30.668516 F2400
G0 X114.4 Y114.4 Z0.84 F4800
G1 X105.6 Y114.4 Z0.84 E30.84413 F2400
G1 X105.6 Y105.6 Z0.84 E31.019744 F2400
G1 X114.4 Y105.6 Z0.84 E31.195358 F2400
G1 X114.4 Y114.4 Z0.84 E31.370972 F2400
G0 X114.0 Y114.0 Z0.84 F4800
G1 X106.0 Y114.0 Z0.84 E31.530621 F2400
G1 X106.0 Y106.0 Z0.84 E31.69027 F2400
G1 X114.0 Y106.0 Z0.84 E31.849919 F2400
G1 X114.0 Y114.0 Z0.84 E32.009568 F2400
G0 X113.6 Y113.6 Z0.84 F4800
G1 X106.4 Y113.6 Z0.84 E32.153252 F2400
G1 X106.4 Y106.4 Z0.84 E32.296936 F2400
G1 X113.6 Y106.4 Z0.84 E32.44062 F2400
G1 X113.6 Y113.6 Z0.84 E32.584304 F2400
G0 X113.2 Y113.2 Z0.84 F4800
G1 X106.8 Y113.2 Z0.84 E32.712023 F2400
G1 X106.8 Y106.8 Z0.84 E32.839742 F2400
G1 X113.2 Y106.8 Z0.84 E32.967461 F2400
G1 X113.2 Y113.2 Z0.84 E33.09518 F2400
G0 X112.8 Y112.8 Z0.84 F4800
G1 X107.2 Y112.8 Z0.84 E33.206934 F2400
G1 X107.2 Y107.2 Z0.84 E33.318688 F2400
G1 X112.8 Y107.2 Z0.84 E33.430442 F2400
G1 X112.8 Y112.8 Z0.84 E33.542196 F2400
G0 X112.4 Y112.4 Z0.84 F4800
G1 X107.6 Y112.4 Z0.84 E33.637985 F2400
G1 X107.6 Y107.6 Z0.84 E33.733774 F2400
G1 X112.4 Y107.6 Z0.84 E33.829563 F2400
G1 X112.4 Y112.4 Z0.84 E33.925352 F2400
G0 X112.0 Y112.0 Z0.84 F4800
G1 X108.0 Y112.0 Z0.84 E34.005176 F2400
G1 X108.0 Y108.0 Z0.84 E34.085 F2400
G1 X112.0 Y108.0 Z0.84 E34.164824 F2400
G1 X112.0 Y112.0 Z0.84 E34.244648 F2400
G0 X111.6 Y111.6 Z0.84 F4800
G1 X108.4 Y111.6 Z0.84 E34.308507 F2400
G1 X108.4 Y108.4 Z0.84 E34.372366 F2400
G1 X111.6 Y108.4 Z0.84 E34.436225 F2400
G1 X111.6 Y111.6 Z0.84 E34.500084 F2400
G0 X111.2 Y111.2 Z0.84 F4800
G1 X108.8 Y111.2 Z0.84 E34.547979 F2400
G1 X108.8 Y108.8 Z0.84 E34.595874 F2400
G1 X111.2 Y108.8 Z0.84 E34.643769 F2400
G1 X111.2 Y111.2 Z0.84 E34.691664 F2400
G0 X110.8 Y110.8 Z0.84 F4800
G1 X109.2 Y110.8 Z0.84 E34.723594 F2400
G1 X109.2 Y109.2 Z0.84 E34.755524 F2400
G1 X110.8 Y109.2 Z0.84 E34.787454 F2400
G1 X110.8 Y110.8 Z0.84 E34.819384 F2400
G0 X110.4 Y110.4 Z0.84 F4800
G1 X109.6 Y110.4 Z0.84 E34.835349 F2400
G1 X109.6 Y109.6 Z0.84 E34.851314 F2400
G1 X110.4 Y109.6 Z0.84 E34.867279 F2400
G1 X110.4 Y110.4 Z0.84 E34.883244 F2400
G1 E26.883243999999998
G0 X114.8 Y114.8 Z0.84 F4800
G0 X114.8 Y114.8 Z0.96 F4800
G1 E34.883244
G1 X105.2 Y114.8 Z0.96 E35.074822 F2400
G1 X105.2 Y105.2 Z0.96 E35.2664 F2400
G1 X114.8 Y105.2 Z0.96 E35.457978 F2400
G1 X114.8 Y114.8 Z0.96 E35.649556 F2400
G0 X114.4 Y114.4 Z0.96 F4800
G1 X105.6 Y114.4 Z0.96 E35.82517 F2400
G1 X105.6 Y105.6 Z0.96 E36.000784 F2400
G1 X114.4 Y105.6 Z0.96 E36.176398 F2400
G1 X114.4 Y114.4 Z0.96 E36.352012 F2400
G0 X114.0 Y114.0 Z0.96 F4800
G1 X106.0 Y114.0 Z0.96 E36.511661 F2400
G1 X106.0 Y106.0 Z0.96 E36.67131 F2400
G1 X114.0 Y106.0 Z0.96 E36.830959 F2400
G1 X114.0 Y114.0 Z0.96 E36.990608 F2400
G0 X113.6 Y113.6 Z0.96 F4800
G1 X106.4 Y113.6 Z0.96 E37.134292 F2400
G1 X106.4 Y106.4 Z0.96 E37.277976 F2400
G1 X113.6 Y106.4 Z0.96 E37.42166 F2400
G1 X113.6 Y113.6 Z0.96 E37.565344 F2400
G0 X113.2 Y113.2 Z0.96 F4800
G1 X106.8 Y113.2 Z0.96 E37.693063 F2400
G1 X106.8 Y106.8 Z0.96 E37.820782 F2400
G1 X113.2 Y106.8 Z0.96 E37.948501 F2400
G1 X113.2 Y113.2 Z0.96 E38.07622 F2400
G0 X112.8 Y112.8 Z0.96 F4800
G1 X107.2 Y112.8 Z0.96 E38.187974 F2400
G1 X107.2 Y107.2 Z0.96 E38.299728 F2400
G1 X112.8 Y107.2 Z0.96 E38.411482 F2400
G1 X112.8 Y112.8 Z0.96 E38.523236 F2400
G0 X112.4 Y112.4 Z0.96 F4800
G1 X107.6 Y112.4 Z0.96 E38.619025 F2400
G1 X107.6 Y107.6 Z0.96 E38.714814 F2400
G1 X112.4 Y107.6 Z0.96 E38.810603 F2400
G1 X112.4 Y112.4 Z0.96 E38.906392 F2400
G0 X112.0 Y112.0 Z0.96 F4800
G1 X108.0 Y112.0 Z0.96 E38.986216 F2400
G1 X108.0 Y108.0 Z0.96 E39.06604 F2400
G1 X112.0 Y108.0 Z0.96 E39.145864 F2400
G1 X112.0 Y112.0 Z0.96 E39.225688 F2400
G0 X111.6 Y111.6 Z0.96 F4800
G1 X108.4 Y111.6 Z0.96 E39.289547 F2400
G1 X108.4 Y108.4 Z0.96 E39.353406 F2400
G1 X111.6 Y108.4 Z0.96 E39.417265 F2400
G1 X111.6 Y111.6 Z0.96 E39.481124 F2400
